X:48
T:B048-  Bugle Bow (Bugga-boo)
Q:1/4=120
L:1/4
M:4/4
K:F
B|AFFD|G3B|AFGE|F3B|A(F F/2)F/2D|\
G3/2A/2Bc|A(FF/2)G/2 E|F3|]

